X: 10447
T: Donegal Tinker, The
R: reel
M: 4/4
K: Gmajor
dddB cAGc|Addc AGEG|Addc AdcA|GEED CDEG|
Ad (3ddd fd (3ddd|Addc AGEG|Addc AdcA|GEED CDEG||
AD (3DDD A,DDA|AGAB c2 Bc|ADDD A,CEG|AdcA {F}G4|
AD (3DDD A,DDA|AGAB c2 Bc|ADDD A,CEG|AdcA {F}G4||
dddB ccc A|dAAA afga|dddB cccA|Bcef gg fe|
{c}dddB ccc A|dAAA afga|dddB cccA|Bcef gg fg||
aadd adbd|aada dggd|aada- abad|cdef ggfg|
ad (3ddd adbd|adda- adge|abae gage|cdef gefe||

